content/sets-and-functions/images/complement.svg

<svg height="115pt" viewBox="0 0 208.833 115" width="208.833pt" xmlns="http://www.w3.org/2000/svg" xmlns:xlink="http://www.w3.org/1999/xlink"><clipPath id="a"><path d="m15 0h193.832031v114h-193.832031zm0 0"/></clipPath><symbol id="b" overflow="visible"><path d="m2.4375-1.59375c-.5.84375-.984375 1.140625-1.671875 1.171875-.15625.015625-.28125.015625-.28125.28125 0 .078125.078125.140625.171875.140625.265625 0 .90625-.03125 1.171875-.03125.40625 0 .875.03125 1.265625.03125.09375 0 .265625 0 .265625-.265625 0-.140625-.125-.15625-.203125-.15625-.328125-.015625-.609375-.140625-.609375-.484375 0-.203125.09375-.359375.28125-.671875l1.09375-1.8125h3.65625c.015625.140625.015625.25.03125.375.03125.375.203125 1.875.203125 2.140625 0 .4375-.734375.453125-.953125.453125-.15625 0-.3125 0-.3125.265625 0 .15625.125.15625.203125.15625.25 0 .53125-.03125.78125-.03125h.8125c.875 0 1.515625.03125 1.53125.03125.09375 0 .25 0 .25-.265625 0-.15625-.125-.15625-.34375-.15625-.78125 0-.796875-.125-.84375-.546875l-.875-8.953125c-.03125-.296875-.09375-.3125-.25-.3125-.140625 0-.21875.015625-.359375.234375zm1.71875-2.203125 2.890625-4.828125.484375 4.828125zm0 0"/></symbol><symbol id="c" overflow="visible"><path d="m9.109375-9.96875c0-.125-.09375-.125-.125-.125-.0625 0-.078125.015625-.25.21875-.078125.109375-.671875.859375-.6875.859375-.46875-.921875-1.421875-1.078125-2.015625-1.078125-1.828125 0-3.484375 1.65625-3.484375 3.28125 0 1.078125.65625 1.703125 1.359375 1.953125.15625.046875 1 .28125 1.421875.390625.734375.1875.921875.25 1.234375.5625.046875.078125.34375.40625.34375 1.078125 0 1.34375-1.234375 2.71875-2.671875 2.71875-1.171875 0-2.484375-.5-2.484375-2.109375 0-.28125.0625-.625.09375-.765625 0-.046875.015625-.109375.015625-.140625 0-.0625-.015625-.125-.140625-.125s-.140625.015625-.203125.265625l-.734375 2.9375c0 .015625-.046875.203125-.046875.21875 0 .125.109375.125.140625.125.0625 0 .078125-.015625.25-.21875l.65625-.859375c.34375.515625 1.09375 1.078125 2.421875 1.078125 1.84375 0 3.546875-1.78125 3.546875-3.578125 0-.609375-.140625-1.140625-.6875-1.671875-.3125-.296875-.5625-.375-1.890625-.71875-.953125-.25-1.078125-.296875-1.34375-.53125-.25-.234375-.421875-.578125-.421875-1.0625 0-1.21875 1.21875-2.4375 2.578125-2.4375 1.40625 0 2.0625.859375 2.0625 2.21875 0 .375-.078125.75-.078125.8125 0 .125.125.125.171875.125.125 0 .140625-.03125.1875-.265625zm0 0"/></symbol><symbol id="d" overflow="visible"><path d="m4.09375-4.171875c-.59375-.328125-.9375-.421875-1.546875-.421875-1.375 0-2.1875 1.203125-2.1875 2.375 0 1.234375.90625 2.328125 2.15625 2.328125.53125 0 1.078125-.140625 1.625-.515625l-.0625-.65625c-.515625.390625-1.046875.53125-1.5625.53125-.828125 0-1.375-.71875-1.375-1.6875 0-.78125.359375-1.734375 1.421875-1.734375.515625 0 .859375.078125 1.40625.4375zm0 0"/></symbol><path d="m18.667969 28.167969c-2.667969 16-2.667969 42.664062 0 58.664062 2.664062 16 8 21.335938 37.332031 24 29.332031 2.667969 82.667969 2.667969 112 0 29.332031-2.664062 34.667969-8 37.332031-24 2.667969-16 2.667969-42.664062 0-58.664062-2.664062-16-8-21.335938-24-24-16-2.667969-42.664062-2.667969-69.332031-2.667969s-53.332031 0-69.332031 2.667969c-16 2.664062-21.335938 8-24 24zm0 0" fill="#add8e6" fill-rule="evenodd"/><g clip-path="url(#a)"><path d="m194.667969 725.332031c-2.667969-16-2.667969-42.664062 0-58.664062 2.664062-16 8-21.335938 37.332031-24 29.332031-2.667969 82.667969-2.667969 112 0 29.332031 2.664062 34.667969 8 37.332031 24 2.667969 16 2.667969 42.664062 0 58.664062-2.664062 16-8 21.335938-24 24-16 2.667969-42.664062 2.667969-69.332031 2.667969s-53.332031 0-69.332031-2.667969c-16-2.664062-21.335938-8-24-24zm0 0" fill="none" stroke="#00008b" stroke-linejoin="round" stroke-miterlimit="10" stroke-width="2" transform="matrix(1 0 0 -1 -176 753.5)"/></g><g fill-rule="evenodd"><path d="m135.214844 32.496094c0-.992188-.808594-1.800782-1.800782-1.800782-.992187 0-1.800781.808594-1.800781 1.800782 0 .996094.808594 1.800781 1.800781 1.800781.992188 0 1.800782-.804687 1.800782-1.800781" fill="#006400"/><path d="m177.800781 49.5c0-.992188-.808593-1.800781-1.800781-1.800781s-1.800781.808593-1.800781 1.800781.808593 1.800781 1.800781 1.800781 1.800781-.808593 1.800781-1.800781" fill="#006400"/><path d="m151.769531 73.472656c0-.992187-.808593-1.796875-1.800781-1.796875-.996094 0-1.800781.804688-1.800781 1.796875 0 .996094.804687 1.800782 1.800781 1.800782.992188 0 1.800781-.804688 1.800781-1.800782" fill="#006400"/><path d="m162.300781 29.433594c0-.992188-.804687-1.796875-1.796875-1.796875-.996094 0-1.800781.804687-1.800781 1.796875 0 .996094.804687 1.800781 1.800781 1.800781.992188 0 1.796875-.804687 1.796875-1.800781" fill="#006400"/><path d="m177.800781 81.5c0-.992188-.808593-1.800781-1.800781-1.800781s-1.800781.808593-1.800781 1.800781.808593 1.800781 1.800781 1.800781 1.800781-.808593 1.800781-1.800781" fill="#006400"/><path d="m74.492188 23.683594c0-.996094-.804688-1.800782-1.796876-1.800782-.996093 0-1.800781.804688-1.800781 1.800782 0 .992187.804688 1.796875 1.800781 1.796875.992188 0 1.796876-.804688 1.796876-1.796875" fill="#8b0000"/><path d="m49.800781 33.5c0-.992188-.808593-1.800781-1.800781-1.800781s-1.800781.808593-1.800781 1.800781.808593 1.800781 1.800781 1.800781 1.800781-.808593 1.800781-1.800781" fill="#8b0000"/><path d="m36.992188 56.074219c0-.992188-.808594-1.796875-1.800782-1.796875-.996094 0-1.800781.804687-1.800781 1.796875 0 .996093.804687 1.800781 1.800781 1.800781.992188 0 1.800782-.804688 1.800782-1.800781" fill="#8b0000"/><path d="m77.917969 60.933594c0-.996094-.804688-1.800782-1.800781-1.800782-.992188 0-1.796876.804688-1.796876 1.800782s.804688 1.800781 1.796876 1.800781c.996093 0 1.800781-.804687 1.800781-1.800781" fill="#8b0000"/><path d="m97.800781 81.5c0-.992188-.808593-1.800781-1.800781-1.800781s-1.800781.808593-1.800781 1.800781.808593 1.800781 1.800781 1.800781 1.800781-.808593 1.800781-1.800781" fill="#8b0000"/></g><use fill="#8b0000" x="48" xlink:href="#b" y="97.5"/><use fill="#006400" x="144" xlink:href="#b" y="97.5"/><use fill="#006400" x="154.53" xlink:href="#d" y="92.294"/><path d="m288 640c0 32 8 48 8 60s-8 20-40 52" style="fill-rule:evenodd;fill:#add8e6;stroke-width:2;stroke-linejoin:round;stroke:#00008b;stroke-miterlimit:10" transform="matrix(1 0 0 -1 -176 753.5)"/><use fill="#00008b" xlink:href="#c" y="97.5"/></svg>

<?xml version="1.0" encoding="UTF-8"?>
<svg xmlns="http://www.w3.org/2000/svg" xmlns:xlink="http://www.w3.org/1999/xlink" width="208.833pt" height="115pt" viewBox="0 0 208.833 115" version="1.1">
<defs>
<g>
<symbol overflow="visible" id="glyph0-0">
<path style="stroke:none;" d=""/>
</symbol>
<symbol overflow="visible" id="glyph0-1">
<path style="stroke:none;" d="M 2.4375 -1.59375 C 1.9375 -0.75 1.453125 -0.453125 0.765625 -0.421875 C 0.609375 -0.40625 0.484375 -0.40625 0.484375 -0.140625 C 0.484375 -0.0625 0.5625 0 0.65625 0 C 0.921875 0 1.5625 -0.03125 1.828125 -0.03125 C 2.234375 -0.03125 2.703125 0 3.09375 0 C 3.1875 0 3.359375 0 3.359375 -0.265625 C 3.359375 -0.40625 3.234375 -0.421875 3.15625 -0.421875 C 2.828125 -0.4375 2.546875 -0.5625 2.546875 -0.90625 C 2.546875 -1.109375 2.640625 -1.265625 2.828125 -1.578125 L 3.921875 -3.390625 L 7.578125 -3.390625 C 7.59375 -3.25 7.59375 -3.140625 7.609375 -3.015625 C 7.640625 -2.640625 7.8125 -1.140625 7.8125 -0.875 C 7.8125 -0.4375 7.078125 -0.421875 6.859375 -0.421875 C 6.703125 -0.421875 6.546875 -0.421875 6.546875 -0.15625 C 6.546875 0 6.671875 0 6.75 0 C 7 0 7.28125 -0.03125 7.53125 -0.03125 L 8.34375 -0.03125 C 9.21875 -0.03125 9.859375 0 9.875 0 C 9.96875 0 10.125 0 10.125 -0.265625 C 10.125 -0.421875 10 -0.421875 9.78125 -0.421875 C 9 -0.421875 8.984375 -0.546875 8.9375 -0.96875 L 8.0625 -9.921875 C 8.03125 -10.21875 7.96875 -10.234375 7.8125 -10.234375 C 7.671875 -10.234375 7.59375 -10.21875 7.453125 -10 Z M 4.15625 -3.796875 L 7.046875 -8.625 L 7.53125 -3.796875 Z M 4.15625 -3.796875 "/>
</symbol>
<symbol overflow="visible" id="glyph0-2">
<path style="stroke:none;" d="M 9.109375 -9.96875 C 9.109375 -10.09375 9.015625 -10.09375 8.984375 -10.09375 C 8.921875 -10.09375 8.90625 -10.078125 8.734375 -9.875 C 8.65625 -9.765625 8.0625 -9.015625 8.046875 -9.015625 C 7.578125 -9.9375 6.625 -10.09375 6.03125 -10.09375 C 4.203125 -10.09375 2.546875 -8.4375 2.546875 -6.8125 C 2.546875 -5.734375 3.203125 -5.109375 3.90625 -4.859375 C 4.0625 -4.8125 4.90625 -4.578125 5.328125 -4.46875 C 6.0625 -4.28125 6.25 -4.21875 6.5625 -3.90625 C 6.609375 -3.828125 6.90625 -3.5 6.90625 -2.828125 C 6.90625 -1.484375 5.671875 -0.109375 4.234375 -0.109375 C 3.0625 -0.109375 1.75 -0.609375 1.75 -2.21875 C 1.75 -2.5 1.8125 -2.84375 1.84375 -2.984375 C 1.84375 -3.03125 1.859375 -3.09375 1.859375 -3.125 C 1.859375 -3.1875 1.84375 -3.25 1.71875 -3.25 C 1.59375 -3.25 1.578125 -3.234375 1.515625 -2.984375 L 0.78125 -0.046875 C 0.78125 -0.03125 0.734375 0.15625 0.734375 0.171875 C 0.734375 0.296875 0.84375 0.296875 0.875 0.296875 C 0.9375 0.296875 0.953125 0.28125 1.125 0.078125 L 1.78125 -0.78125 C 2.125 -0.265625 2.875 0.296875 4.203125 0.296875 C 6.046875 0.296875 7.75 -1.484375 7.75 -3.28125 C 7.75 -3.890625 7.609375 -4.421875 7.0625 -4.953125 C 6.75 -5.25 6.5 -5.328125 5.171875 -5.671875 C 4.21875 -5.921875 4.09375 -5.96875 3.828125 -6.203125 C 3.578125 -6.4375 3.40625 -6.78125 3.40625 -7.265625 C 3.40625 -8.484375 4.625 -9.703125 5.984375 -9.703125 C 7.390625 -9.703125 8.046875 -8.84375 8.046875 -7.484375 C 8.046875 -7.109375 7.96875 -6.734375 7.96875 -6.671875 C 7.96875 -6.546875 8.09375 -6.546875 8.140625 -6.546875 C 8.265625 -6.546875 8.28125 -6.578125 8.328125 -6.8125 Z M 9.109375 -9.96875 "/>
</symbol>
<symbol overflow="visible" id="glyph1-0">
<path style="stroke:none;" d=""/>
</symbol>
<symbol overflow="visible" id="glyph1-1">
<path style="stroke:none;" d="M 4.09375 -4.171875 C 3.5 -4.5 3.15625 -4.59375 2.546875 -4.59375 C 1.171875 -4.59375 0.359375 -3.390625 0.359375 -2.21875 C 0.359375 -0.984375 1.265625 0.109375 2.515625 0.109375 C 3.046875 0.109375 3.59375 -0.03125 4.140625 -0.40625 L 4.078125 -1.0625 C 3.5625 -0.671875 3.03125 -0.53125 2.515625 -0.53125 C 1.6875 -0.53125 1.140625 -1.25 1.140625 -2.21875 C 1.140625 -3 1.5 -3.953125 2.5625 -3.953125 C 3.078125 -3.953125 3.421875 -3.875 3.96875 -3.515625 Z M 4.09375 -4.171875 "/>
</symbol>
</g>
<clipPath id="clip1">
  <path d="M 15 0 L 208.832031 0 L 208.832031 114 L 15 114 Z M 15 0 "/>
</clipPath>
</defs>
<g id="surface1">
<path style=" stroke:none;fill-rule:evenodd;fill:rgb(67.799377%,84.698486%,90.19928%);fill-opacity:1;" d="M 18.667969 28.167969 C 16 44.167969 16 70.832031 18.667969 86.832031 C 21.332031 102.832031 26.667969 108.167969 56 110.832031 C 85.332031 113.5 138.667969 113.5 168 110.832031 C 197.332031 108.167969 202.667969 102.832031 205.332031 86.832031 C 208 70.832031 208 44.167969 205.332031 28.167969 C 202.667969 12.167969 197.332031 6.832031 181.332031 4.167969 C 165.332031 1.5 138.667969 1.5 112 1.5 C 85.332031 1.5 58.667969 1.5 42.667969 4.167969 C 26.667969 6.832031 21.332031 12.167969 18.667969 28.167969 Z M 18.667969 28.167969 "/>
<g clip-path="url(#clip1)" clip-rule="nonzero">
<path style="fill:none;stroke-width:2;stroke-linecap:butt;stroke-linejoin:round;stroke:rgb(0%,0%,54.499817%);stroke-opacity:1;stroke-miterlimit:10;" d="M 194.667969 725.332031 C 192 709.332031 192 682.667969 194.667969 666.667969 C 197.332031 650.667969 202.667969 645.332031 232 642.667969 C 261.332031 640 314.667969 640 344 642.667969 C 373.332031 645.332031 378.667969 650.667969 381.332031 666.667969 C 384 682.667969 384 709.332031 381.332031 725.332031 C 378.667969 741.332031 373.332031 746.667969 357.332031 749.332031 C 341.332031 752 314.667969 752 288 752 C 261.332031 752 234.667969 752 218.667969 749.332031 C 202.667969 746.667969 197.332031 741.332031 194.667969 725.332031 Z M 194.667969 725.332031 " transform="matrix(1,0,0,-1,-176,753.5)"/>
</g>
<path style=" stroke:none;fill-rule:evenodd;fill:rgb(0%,39.199829%,0%);fill-opacity:1;" d="M 135.214844 32.496094 C 135.214844 31.503906 134.40625 30.695312 133.414062 30.695312 C 132.421875 30.695312 131.613281 31.503906 131.613281 32.496094 C 131.613281 33.492188 132.421875 34.296875 133.414062 34.296875 C 134.40625 34.296875 135.214844 33.492188 135.214844 32.496094 "/>
<path style=" stroke:none;fill-rule:evenodd;fill:rgb(0%,39.199829%,0%);fill-opacity:1;" d="M 177.800781 49.5 C 177.800781 48.507812 176.992188 47.699219 176 47.699219 C 175.007812 47.699219 174.199219 48.507812 174.199219 49.5 C 174.199219 50.492188 175.007812 51.300781 176 51.300781 C 176.992188 51.300781 177.800781 50.492188 177.800781 49.5 "/>
<path style=" stroke:none;fill-rule:evenodd;fill:rgb(0%,39.199829%,0%);fill-opacity:1;" d="M 151.769531 73.472656 C 151.769531 72.480469 150.960938 71.675781 149.96875 71.675781 C 148.972656 71.675781 148.167969 72.480469 148.167969 73.472656 C 148.167969 74.46875 148.972656 75.273438 149.96875 75.273438 C 150.960938 75.273438 151.769531 74.46875 151.769531 73.472656 "/>
<path style=" stroke:none;fill-rule:evenodd;fill:rgb(0%,39.199829%,0%);fill-opacity:1;" d="M 162.300781 29.433594 C 162.300781 28.441406 161.496094 27.636719 160.503906 27.636719 C 159.507812 27.636719 158.703125 28.441406 158.703125 29.433594 C 158.703125 30.429688 159.507812 31.234375 160.503906 31.234375 C 161.496094 31.234375 162.300781 30.429688 162.300781 29.433594 "/>
<path style=" stroke:none;fill-rule:evenodd;fill:rgb(0%,39.199829%,0%);fill-opacity:1;" d="M 177.800781 81.5 C 177.800781 80.507812 176.992188 79.699219 176 79.699219 C 175.007812 79.699219 174.199219 80.507812 174.199219 81.5 C 174.199219 82.492188 175.007812 83.300781 176 83.300781 C 176.992188 83.300781 177.800781 82.492188 177.800781 81.5 "/>
<path style=" stroke:none;fill-rule:evenodd;fill:rgb(54.499817%,0%,0%);fill-opacity:1;" d="M 74.492188 23.683594 C 74.492188 22.6875 73.6875 21.882812 72.695312 21.882812 C 71.699219 21.882812 70.894531 22.6875 70.894531 23.683594 C 70.894531 24.675781 71.699219 25.480469 72.695312 25.480469 C 73.6875 25.480469 74.492188 24.675781 74.492188 23.683594 "/>
<path style=" stroke:none;fill-rule:evenodd;fill:rgb(54.499817%,0%,0%);fill-opacity:1;" d="M 49.800781 33.5 C 49.800781 32.507812 48.992188 31.699219 48 31.699219 C 47.007812 31.699219 46.199219 32.507812 46.199219 33.5 C 46.199219 34.492188 47.007812 35.300781 48 35.300781 C 48.992188 35.300781 49.800781 34.492188 49.800781 33.5 "/>
<path style=" stroke:none;fill-rule:evenodd;fill:rgb(54.499817%,0%,0%);fill-opacity:1;" d="M 36.992188 56.074219 C 36.992188 55.082031 36.183594 54.277344 35.191406 54.277344 C 34.195312 54.277344 33.390625 55.082031 33.390625 56.074219 C 33.390625 57.070312 34.195312 57.875 35.191406 57.875 C 36.183594 57.875 36.992188 57.070312 36.992188 56.074219 "/>
<path style=" stroke:none;fill-rule:evenodd;fill:rgb(54.499817%,0%,0%);fill-opacity:1;" d="M 77.917969 60.933594 C 77.917969 59.9375 77.113281 59.132812 76.117188 59.132812 C 75.125 59.132812 74.320312 59.9375 74.320312 60.933594 C 74.320312 61.929688 75.125 62.734375 76.117188 62.734375 C 77.113281 62.734375 77.917969 61.929688 77.917969 60.933594 "/>
<path style=" stroke:none;fill-rule:evenodd;fill:rgb(54.499817%,0%,0%);fill-opacity:1;" d="M 97.800781 81.5 C 97.800781 80.507812 96.992188 79.699219 96 79.699219 C 95.007812 79.699219 94.199219 80.507812 94.199219 81.5 C 94.199219 82.492188 95.007812 83.300781 96 83.300781 C 96.992188 83.300781 97.800781 82.492188 97.800781 81.5 "/>
<g style="fill:rgb(54.499817%,0%,0%);fill-opacity:1;">
  <use xlink:href="#glyph0-1" x="48" y="97.5"/>
</g>
<g style="fill:rgb(0%,39.199829%,0%);fill-opacity:1;">
  <use xlink:href="#glyph0-1" x="144" y="97.5"/>
</g>
<g style="fill:rgb(0%,39.199829%,0%);fill-opacity:1;">
  <use xlink:href="#glyph1-1" x="154.53" y="92.294"/>
</g>
<path style="fill-rule:evenodd;fill:rgb(67.799377%,84.698486%,90.19928%);fill-opacity:1;stroke-width:2;stroke-linecap:butt;stroke-linejoin:round;stroke:rgb(0%,0%,54.499817%);stroke-opacity:1;stroke-miterlimit:10;" d="M 288 640 C 288 672 296 688 296 700 C 296 712 288 720 256 752 " transform="matrix(1,0,0,-1,-176,753.5)"/>
<g style="fill:rgb(0%,0%,54.499817%);fill-opacity:1;">
  <use xlink:href="#glyph0-2" x="0" y="97.5"/>
</g>
</g>
</svg>
